X: 2832
T: Barbara Allen
R: hornpipe
M: 4/4
K: Eminor
B2|EFGE FGAF|B2B2 AFDF|G2EG F2D2|EFGE AFD2|
EFGE FGAF|B2B2 AFDF|G2EF GFED|1 B2E2 E3B|2 B2 E2 E3B1||
e^dB^d e^dB^d|e^def egfe|dAFA dAFA|BcdB AFD2|
EFGE FGAF|B2B2 AFDF|G2 EF GFED|1 B2E2 E3B|2 B2E2 E4||

